!!!!SEGMENT: pl-sa--371-a-viii-11--002_anonim--bog-sie-rodzi.krn
!!!cenid: 17xx:1733
!!!COM: Anonim
!!!COM-rismID: pe30004985
!!!CDT:
!!!CNT:
!!!OTL: Bóg się rodzi
!!!PDT:
!!!AGN: Sacred
!!!SMS-siglum: PL-SA
!!!SMS-shelfmark: 371/A VIII 11
!!!SMS-shelfwork: 002 W
!!!SMS-variant:
!!!SMS-altvar:
!!!NIFC-rismSourceID: 1001041390
!!!NIFC-islandoraID:
!!!URL-pdf-islandora:
!!!URL-scan: https://bc.bdsandomierz.pl/dlibra/publication/1675/edition/1643/content @EN{Scan in the Sandomierz Diocese Digital Library} @PL{Skany w portalu Cyfrowa Biblioteka Diecezjalna w Sandomierzu}
!!!ONB-nifc: UWAGA: utwory w zbiorze: 1. Pasterze mili, coście widzieli, 2. Bóg się rodzi, 3. Grates nunc omnes reddamus
!!!AIN: 1 organ 1 soprn 2 violn
!!!key: F
**kern	**kern	**kern	**kern	**text
*part4	*part3	*part2	*part1	*part1
*group3	*group2	*group2	*group1	*group1
*staff4	*staff3	*staff2	*staff1	*staff1
*I"Baſso.	*I"Violino 2do.	*I"Violino Primo	*I"Canto.	*
*I'b	*I'vl 2	*I'vl 1	*I'S	*
*Iorgan	*Ivioln	*Ivioln	*Isoprn	*
*ICklav	*ICstr	*ICstr	*ICvox	*
*clefF4	*clefG2	*clefG2	*clefC1	*
*k[b-]	*k[b-]	*k[b-]	*k[b-]	*
*F:	*F:	*F:	*F:	*
*M3/4	*M3/4	*M3/4	*M3/4	*
=1	=1	=1	=1	=1
*2\right	*	*	*	*
*tremolo	*	*	*	*
!LO:TX:a:B:t=Adagio	!LO:TX:a:B:t=ada.	!LO:TX:a:t=P:problem= mixed beam	!	!
8F\L	8f/L	8f/L	8f/	Bóg
8F\	8a/J	8ff\J	8ff\	się
8F\	4a/	4ff\	4ff\	ro-
8F\	.	.	.	.
8F\	8cc\L	8ee\L	8ee\L	-dzi
8F\J	8b-\J	8dd\J	8dd\J	.
=2	=2	=2	=2	=2
8F\L	8a/L	8cc\L	8cc\L	moc
8F\	8b-/J	8dd\J	8dd\J	tru-
8F\	4b-/	4dd\	4dd\	-chle-
8F\	.	.	.	.
8F\	8a/L	8cc\L	8cc\L	-ie
8F\J	8g/J	8b-\J	8b-\J	.
=3	=3	=3	=3	=3
8F\L	8f/L	8a\L	8a\L	Pan
8F\	8a/J	8cc\J	8cc\J	.
8F\	4a/	4cc\	4cc\	nie-
8F\	.	.	.	.
8F\	8g/L	8b-/L	8b-\L	-bio-
8F\J	8f/J	8a/J	8a\J	-sow
=4	=4	=4	=4	=4
4C/	8g/L	8b-/L	8b-\L	ob-
.	8e/J	8g/J	8g\J	-na-
4E/	4g/	4b-/	4b-\	-żo-
4F/	4f/	4a/	4a\	-ny.
=5	=5	=5	=5	=5
!	!	!LO:TX:a:t=P:problem= mixed beam	!	!
8F\L	8f/L	8f/L	8f/	O-
8F\	8a/J	8ff\J	8ff\	-gień
!	!	!	!LO:LB:g=original	!
8F\	4a/	4ff\	4ff\	krze-
8F\	.	.	.	.
8F\	8cc\L	8ee\L	8ee\L	-pnie
8F\J	8b-\J	8dd\J	8dd\J	.
=6	=6	=6	=6	=6
8F\L	8a\L	8cc\L	8cc\L	blask
8F\	8b-\J	8dd\J	8dd\J	ciem-
8F\	4b-\	4dd\	4dd\	-nie-
8F\	.	.	.	.
8F\	8a\L	8cc\L	8cc\L	-ie
8F\J	8g\J	8b-\J	8b-\J	.
!	!	!LO:LB:g=original	!	!
=7	=7	=7	=7	=7
8F\L	8f/L	8a/L	8a\L	Ma
8F\	8a/J	8cc/J	8cc\J	gra-
8F\	4a/	4cc\	4cc\	-ni-
8F\	.	.	.	.
8F\	8g/L	8b-/L	8b-\L	-ce
8F\J	8f/J	8a/J	8a\J	.
*Xtremolo	*	*	*	*
!	!LO:LB:g=original	!	!	!
=8	=8	=8	=8	=8
4C/	8g/L	8b-/L	8b-\L	nie-
.	8e/J	8g/J	8g\J	-skoń-
4E/	4g/	4b-/	4b-\	-czo-
4F/	4f/	4a/	4a\	-ny.
=9	=9	=9	=9	=9
4C/	8g/L	8ee\L	8ee\L	Wzgar-
.	8g/J	8ee\J	8ee\J	.
4E/	8g/L	8ee\L	8ee\L	-dzo-
.	8a/J	8ff\J	8ff\J	-ny
4C/	4b-\	4gg\	4gg\	o-
!	!	!	!LO:LB:g=original	!
=10	=10	=10	=10	=10
4F\	8a/L	8ff\L	8ff\	-kry-
.	8a/J	8ff\J	8ff\	-ty
4A\	8a/L	8ff\L	8ff\L	chwa-
.	8b-/J	8gg\J	8gg\J	.
4F\	4cc\	4aa\	4aa\	-łą
!LO:LB:g=original	!	!	!	!
=11	=11	=11	=11	=11
4C/	8g/L	8ee\L	8ee\	Smier-
.	8g/J	8ee\J	8ee\	-tel-
4E/	8g/L	8ee\L	8ee\L	-ny
.	8a/J	8ff\J	8ff\J	.
4C/	4b-/	4gg\	4gg\	Krol.
=12	=12	=12	=12	=12
4F\	8a/L	8ff\L	8ff\	nad
.	8a/J	8ff\J	8ff\	wie-
4A\	8a/L	8ff\L	8ff\L	-ka-
.	8b-/J	8gg\J	8gg\J	.
4F\	4cc\	4aa\	4aa\	-mi
!	!	!LO:LB:g=original	!	!
=13	=13	=13	=13	=13
*tremolo	*	*	*	*
8B-\L	4.ee\	4.gg\	4.gg\	A
8c\	.	.	.	.
8B-\	.	.	.	.
8c\	8dd\	8ff\	8ff\	sło-
8B-\	8cc\L	8ee\L	8ee\L	-wo
8c\J	8b-\J	8dd\J	8dd\J	Cia-
!	!	!	!LO:LB:g=original	!
=14	=14	=14	=14	=14
8A\L	8a/L	8cc\L	8cc\	-łem
8c\	8a/	8ff\	8ff\	się
8A\	8a/	8ff\	8ff\	sta-
8c\	8b-/J	8gg\J	8gg\	.
!	!	!	!LO:N:vis=8	!
8A\	4cc\	4aa\	4aa\	-ło
8c\J	.	.	.	.
!	!LO:LB:g=original	!	!	!
=15	=15	=15	=15	=15
8B-\L	4.ee\	4.gg\	4.gg\	i
8c\	.	.	.	.
8B-\	.	.	.	.
8c\	8dd\	8ff\	8ff\	mie-
8B-\	8cc\L	8ee\L	8ee\L	-szka-
8c\J	8b-\J	8dd\J	8dd\J	-ło
*Xtremolo	*	*	*	*
=16	=16	=16	=16	=16
4F\	8a/L	8cc\L	8cc\L	mię-
.	8a/	8ff\	8ff\J	-dzy
4C/	8g/	8ee\	8ee\L	na-
.	8b-/J	8gg\J	8gg\J	.
4FF/	4a/	4ff\	4ff\	-mi.
=17	=17	=17	=17	=17
*tremolo	*	*	*	*
!	!LO:TX:a:t=P:problem=t. 17-20 zapisane repetycją	!LO:TX:a:t=P:problem=t. 17-20 zapisane repetycją	!LO:TX:a:t=P:problem=t. 17-20 zapisane repetycją	!
8B-\L	4.ee\yy	4.gg\yy	4.gg\yy	A
8c\	.	.	.	.
8B-\	.	.	.	.
8c\	8dd\yy	8ff\yy	8ff\yy	sło-
8B-\	8cc\Lyy	8ee\Lyy	8ee\Lyy	-wo
8c\J	8b-\Jyy	8dd\Jyy	8dd\Jyy	Cia-
=18	=18	=18	=18	=18
8A\L	8a/Lyy	8cc\Lyy	8cc\yy	-łem
8c\	8a/yy	8ff\yy	8ff\yy	się
8A\	8a/yy	8ff\yy	8ff\yy	sta-
8c\	8b-/Jyy	8gg\Jyy	8gg\yy	.
!	!	!	!LO:N:vis=8	!
8A\	4cc\yy	4aa\yy	4aa\yy	-ło
8c\J	.	.	.	.
=19	=19	=19	=19	=19
8B-\L	4.ee\yy	4.gg\yy	4.gg\yy	i
8c\	.	.	.	.
8B-\	.	.	.	.
8c\	8dd\yy	8ff\yy	8ff\yy	mie-
8B-\	8cc\Lyy	8ee\Lyy	8ee\Lyy	-szka-
8c\J	8b-\Jyy	8dd\Jyy	8dd\Jyy	-ło
*Xtremolo	*	*	*	*
!LO:LB:g=original	!	!	!	!
=20	=20	=20	=20	=20
4F\	8a/Lyy	8cc\Lyy	8cc\Lyy	mię-
.	8a/yy	8ff\yy	8ff\Jyy	-dzy
4C/	8g/yy	8ee\yy	8ee\Lyy	na-
.	8b-/Jyy	8gg\Jyy	8gg\Jyy	.
4FF/	4a/yy	4ff\yy	4ff\yy	-mi.
!LO:TX:b:t=Rep:	!	!	!	!
==	==	==	==	==
*-	*-	*-	*-	*-
!!!system-decoration: [g1][g2]g3
!!!RDF**kern: > = above
!!!RDF**kern: < = below
!!!ENC: Katarzyna Serwa
!!!END: 2021-12-30
!!!ENC: Berenika Jozajtis
!!!END: 2021-01-04
